Numix/16/status/indicator-keyboard-Fr.svg

<?xml version="1.0" encoding="UTF-8" standalone="no"?>
<svg
   xmlns:dc="http://purl.org/dc/elements/1.1/"
   xmlns:cc="http://creativecommons.org/ns#"
   xmlns:rdf="http://www.w3.org/1999/02/22-rdf-syntax-ns#"
   xmlns:svg="http://www.w3.org/2000/svg"
   xmlns="http://www.w3.org/2000/svg"
   xmlns:sodipodi="http://sodipodi.sourceforge.net/DTD/sodipodi-0.dtd"
   xmlns:inkscape="http://www.inkscape.org/namespaces/inkscape"
   viewBox="0 0 16 16"
   id="svg2"
   version="1.1"
   inkscape:version="0.91 r13725"
   sodipodi:docname="indicator-keyboard-Fr.svg">
  <metadata
     id="metadata13">
    <rdf:RDF>
      <cc:Work
         rdf:about="">
        <dc:format>image/svg+xml</dc:format>
        <dc:type
           rdf:resource="http://purl.org/dc/dcmitype/StillImage" />
      </cc:Work>
    </rdf:RDF>
  </metadata>
  <defs
     id="defs11" />
  <sodipodi:namedview
     pagecolor="#ffffff"
     bordercolor="#666666"
     borderopacity="1"
     objecttolerance="10"
     gridtolerance="10"
     guidetolerance="10"
     inkscape:pageopacity="0"
     inkscape:pageshadow="2"
     inkscape:window-width="640"
     inkscape:window-height="480"
     id="namedview9"
     showgrid="false"
     inkscape:zoom="14.75"
     inkscape:cx="8"
     inkscape:cy="8"
     inkscape:window-x="65"
     inkscape:window-y="24"
     inkscape:window-maximized="0"
     inkscape:current-layer="svg2" />
  <path
     style="fill:#ececec;fill-opacity:1"
     d="M 1.5996094 0 C 0.71320937 2.9605947e-16 0 0.71320937 0 1.5996094 L 0 14.400391 C 2.9605947e-16 15.286791 0.71320937 16 1.5996094 16 L 14.400391 16 C 15.286791 16 16 15.286791 16 14.400391 L 16 1.5996094 C 16 0.71320937 15.286791 0 14.400391 0 L 1.5996094 0 z M 4.5175781 4.8808594 L 8.0722656 4.8808594 L 8.0722656 5.4121094 L 5.1289062 5.4121094 L 5.1289062 7.609375 L 7.7382812 7.609375 L 7.7382812 8.1386719 L 5.1289062 8.1386719 L 5.1289062 11.119141 L 4.5175781 11.119141 L 4.5175781 4.8808594 z M 10.582031 6.375 C 10.774031 6.375 10.955047 6.3899219 11.123047 6.4199219 C 11.297047 6.4499219 11.416422 6.4797656 11.482422 6.5097656 L 11.365234 7.0136719 C 11.317234 6.9896719 11.218359 6.9673594 11.068359 6.9433594 C 10.924359 6.9133594 10.732188 6.8984375 10.492188 6.8984375 C 10.240187 6.8984375 10.036859 6.9151719 9.8808594 6.9511719 C 9.7308594 6.9871719 9.6319844 7.0170156 9.5839844 7.0410156 L 9.5839844 11.119141 L 8.9980469 11.119141 L 8.9980469 6.6816406 C 9.1480469 6.6156406 9.3551406 6.550375 9.6191406 6.484375 C 9.8831406 6.412375 10.204031 6.375 10.582031 6.375 z "
     id="path4" />
</svg>

<svg xmlns="http://www.w3.org/2000/svg" viewBox="0 0 16 16">
 <path d="m 1.6 0 c -0.886 0 -1.6 0.713 -1.6 1.6 l 0 12.801 c 0 0.886 0.713 1.6 1.6 1.6 l 12.801 0 c 0.886 0 1.6 -0.713 1.6 -1.6 l 0 -12.801 c 0 -0.886 -0.713 -1.6 -1.6 -1.6 l -12.801 0 z m 2.918 4.881 l 3.555 0 l 0 0.531 l -2.943 0 l 0 2.197 l 2.609 0 l 0 0.529 l -2.609 0 l 0 2.98 l -0.611 0 l 0 -6.238 z m 6.06 1.494 c 0.192 0 0.373 0.015 0.541 0.045 c 0.174 0.03 0.293 0.06 0.359 0.09 l -0.117 0.504 c -0.048 -0.024 -0.147 -0.046 -0.297 -0.07 c -0.144 -0.03 -0.336 -0.045 -0.576 -0.045 c -0.252 0 -0.455 0.017 -0.611 0.053 c -0.15 0.036 -0.249 0.066 -0.297 0.09 l 0 4.078 l -0.586 0 l 0 -4.438 c 0.15 -0.066 0.357 -0.131 0.621 -0.197 c 0.264 -0.072 0.585 -0.109 0.963 -0.109 z" style="fill:#ececec;fill-opacity:1"/>
</svg>
